icons/Sun_stroke_icons.svg

<svg width="48" height="48" viewBox="0 0 48 48" fill="currentColor" xmlns="http://www.w3.org/2000/svg">
<path d="M23.9337 2V5.54919" stroke="#3D3D3D" stroke-width="0.75" stroke-miterlimit="10" stroke-linecap="round"/>
<path d="M46 24.0414H42.419" stroke="#3D3D3D" stroke-width="0.75" stroke-miterlimit="10" stroke-linecap="round"/>
<path d="M39.585 8.13641L36.9977 10.989" stroke="#3D3D3D" stroke-width="0.75" stroke-miterlimit="10" stroke-linecap="round"/>
<path d="M2 24.0414H5.58101" stroke="#3D3D3D" stroke-width="0.75" stroke-miterlimit="10" stroke-linecap="round"/>
<path d="M8.39938 8.13641L11.0022 10.989" stroke="#3D3D3D" stroke-width="0.75" stroke-miterlimit="10" stroke-linecap="round"/>
<path d="M23.9337 46V42.4342" stroke="#3D3D3D" stroke-width="0.75" stroke-miterlimit="10" stroke-linecap="round"/>
<path d="M39.585 39.8635L36.9977 37.0109" stroke="#3D3D3D" stroke-width="0.75" stroke-miterlimit="10" stroke-linecap="round"/>
<path d="M8.39938 39.8635L11.0022 37.0109" stroke="#3D3D3D" stroke-width="0.75" stroke-miterlimit="10" stroke-linecap="round"/>
<path d="M31.8417 16.4455C33.7848 18.4895 34.8655 21.2042 34.8591 24.0249C34.8394 26.162 34.187 28.2454 32.9845 30.0119C31.7819 31.7784 30.083 33.1488 28.1023 33.95C26.1217 34.7512 23.9481 34.9473 21.8561 34.5135C19.7642 34.0796 17.8476 33.0354 16.3485 31.5126C14.8494 29.9898 13.8351 28.0568 13.4335 25.9576C13.0319 23.8585 13.2612 21.6873 14.0923 19.7184C14.9235 17.7495 16.3192 16.0712 18.1032 14.8954C19.8873 13.7195 21.9796 13.0989 24.1161 13.1119C25.3187 13.1064 26.5133 13.3084 27.6473 13.709" stroke="#3D3D3D" stroke-width="0.75" stroke-miterlimit="10" stroke-linecap="round"/>
</svg>

<svg xmlns="http://www.w3.org/2000/svg" width="16" height="16" fill="currentColor" class="si si-Sun_stroke_icons" viewBox="0 0 16 16">
  <path stroke="#3D3D3D" stroke-linecap="round" stroke-miterlimit="10" stroke-width=".75" d="M23.934 2v3.55M46 24.041h-3.581M39.585 8.136l-2.587 2.853M2 24.041h3.581M8.4 8.136l2.602 2.853M23.934 46v-3.566m15.651-2.57-2.587-2.853M8.4 39.864l2.602-2.853m20.84-20.565a10.97 10.97 0 0 1 3.017 7.579 10.82 10.82 0 0 1-6.757 9.925 10.806 10.806 0 0 1-14.668-7.992 10.82 10.82 0 0 1 4.67-11.063 10.8 10.8 0 0 1 6.012-1.783 10.5 10.5 0 0 1 3.531.597"/>
</svg>
